X:18
T:Fanny Frail
M:4/4
L:1/8
K:G
P:A
|B,D CE|DG/2A/2 BG|cB AG|FE DC|!
B,D CE|DG/2A/2 BG|cB AG|FE G2:|!
P:B
|:AD/2D/2 BD/2D/2|cB AD|cB AG|FE DC|!
B,D CE|DG/2A/2 BG|cB AG|FE G2:|

